public/images/hashed/1b925337a72f88cc181ed37413920724.svg

<svg xmlns="http://www.w3.org/2000/svg" width="80" height="80"><defs><linearGradient id="a" x1="0%" x2="100%" y1="100%" y2="0%"><stop offset="0%" stop-color="#1B660F"/><stop offset="100%" stop-color="#6CAE3E"/></linearGradient></defs><g fill="none" fill-rule="evenodd"><path fill="url(#a)" d="M0 0h80v80H0z"/><path fill="#FFF" d="M26 21c1.654 0 3 1.346 3 3s-1.346 3-3 3-3-1.346-3-3 1.346-3 3-3Zm0 8c1.042 0 2.01-.322 2.812-.87l4.288 3.43a17.564 17.564 0 0 0-.637 1.643l1.902.619c2.002-6.149 7.467-10.384 13.922-10.786l-.125-1.996c-5.988.374-11.216 3.676-14.141 8.696l-3.816-3.053A4.962 4.962 0 0 0 31 24c0-2.757-2.243-5-5-5s-5 2.243-5 5 2.243 5 5 5Zm-8 14c-1.654 0-3-1.346-3-3s1.346-3 3-3 3 1.346 3 3-1.346 3-3 3Zm4.898-2h17.691a8.982 8.982 0 0 0 2.182 4.594 8.995 8.995 0 0 0 6.758 3.022 9.025 9.025 0 0 0 8.436-5.784L56.1 42.11a7.02 7.02 0 0 1-6.975 4.494 7.003 7.003 0 0 1-4.862-2.342 7.014 7.014 0 0 1-1.782-5.095 7.012 7.012 0 0 1 2.343-4.861 7.033 7.033 0 0 1 5.094-1.782 7.028 7.028 0 0 1 6.435 5.283l1.937-.498a9.021 9.021 0 0 0-8.259-6.782 8.96 8.96 0 0 0-6.539 2.287A8.99 8.99 0 0 0 40.491 39H22.898A5.007 5.007 0 0 0 18 35c-2.757 0-5 2.243-5 5s2.243 5 5 5a5.007 5.007 0 0 0 4.898-4Zm41.997-3.31a15.64 15.64 0 0 0-1.106-4.889l1.854-.75a17.62 17.62 0 0 1 1.248 5.514l-1.996.125Zm-.319 4.281 1.955.421a17.53 17.53 0 0 1-2.718 6.289l-1.647-1.135a15.537 15.537 0 0 0 2.41-5.575ZM53 41h14v-2H53v2Zm-2.977 9.112.125 1.996c-.273.017-.545.026-.816.026-5.877 0-11.132-3.967-12.681-9.692l1.93-.522c1.374 5.076 6.209 8.528 11.442 8.192Zm-1.365-24.223c6.44-.395 12.175 3.867 13.619 10.154l-1.949.448c-1.224-5.328-6.093-8.934-11.545-8.606-5.271.329-9.619 4.359-10.339 9.582l-1.98-.273c.848-6.162 5.976-10.917 12.194-11.305ZM26 59c-1.654 0-3-1.346-3-3s1.346-3 3-3 3 1.346 3 3-1.346 3-3 3Zm24.24-4.702a15.67 15.67 0 0 1-14.927-8.505l-1.781.912c.247.483.523.946.81 1.4l-4.951 4.243A4.97 4.97 0 0 0 26 51c-2.757 0-5 2.243-5 5s2.243 5 5 5 5-2.243 5-5c0-.721-.16-1.403-.437-2.023l4.941-4.235a17.664 17.664 0 0 0 14.861 6.552 17.58 17.58 0 0 0 9.668-3.627l-1.22-1.584a15.594 15.594 0 0 1-8.573 3.215Z"/></g></svg>

<?xml version="1.0" encoding="UTF-8"?>
<svg width="80px" height="80px" viewBox="0 0 80 80" version="1.1" xmlns="http://www.w3.org/2000/svg" xmlns:xlink="http://www.w3.org/1999/xlink">
    <!-- Generator: Sketch 64 (93537) - https://sketch.com -->
    <title>Icon-Architecture/64/Arch_AWS-IoT-Events_64</title>
    <desc>Created with Sketch.</desc>
    <defs>
        <linearGradient x1="0%" y1="100%" x2="100%" y2="0%" id="linearGradient-1">
            <stop stop-color="#1B660F" offset="0%"></stop>
            <stop stop-color="#6CAE3E" offset="100%"></stop>
        </linearGradient>
    </defs>
    <g id="Icon-Architecture/64/Arch_AWS-IoT-Events_64" stroke="none" stroke-width="1" fill="none" fill-rule="evenodd">
        <g id="Icon-Architecture-BG/64/Internet-of-Things" fill="url(#linearGradient-1)">
            <rect id="Rectangle" x="0" y="0" width="80" height="80"></rect>
        </g>
        <path d="M26,21 C27.654,21 29,22.346 29,24 C29,25.654 27.654,27 26,27 C24.346,27 23,25.654 23,24 C23,22.346 24.346,21 26,21 L26,21 Z M26,29 C27.042,29 28.01,28.678 28.812,28.13 L33.1,31.56 C32.865,32.095 32.646,32.639 32.463,33.203 L34.365,33.822 C36.367,27.673 41.832,23.438 48.287,23.036 L48.162,21.04 C42.174,21.414 36.946,24.716 34.021,29.736 L30.205,26.683 C30.702,25.906 31,24.989 31,24 C31,21.243 28.757,19 26,19 C23.243,19 21,21.243 21,24 C21,26.757 23.243,29 26,29 L26,29 Z M18,43 C16.346,43 15,41.654 15,40 C15,38.346 16.346,37 18,37 C19.654,37 21,38.346 21,40 C21,41.654 19.654,43 18,43 L18,43 Z M22.898,41 L40.589,41 C40.857,42.696 41.601,44.283 42.771,45.594 C44.382,47.397 46.599,48.465 49.012,48.601 C49.186,48.611 49.357,48.616 49.529,48.616 C53.26,48.616 56.607,46.342 57.965,42.832 L56.1,42.11 C54.993,44.971 52.199,46.78 49.125,46.604 C47.244,46.498 45.518,45.667 44.263,44.262 C43.009,42.857 42.376,41.048 42.481,39.167 C42.588,37.287 43.42,35.561 44.824,34.306 C46.229,33.051 48.054,32.419 49.918,32.524 C53,32.698 55.585,34.821 56.353,37.807 L58.29,37.309 C57.305,33.476 53.985,30.75 50.031,30.527 C47.602,30.388 45.295,31.204 43.492,32.814 C41.702,34.413 40.641,36.607 40.491,39 L22.898,39 C22.435,36.721 20.414,35 18,35 C15.243,35 13,37.243 13,40 C13,42.757 15.243,45 18,45 C20.414,45 22.435,43.279 22.898,41 L22.898,41 Z M64.895,37.69 C64.788,35.996 64.416,34.351 63.789,32.801 L65.643,32.051 C66.351,33.801 66.771,35.656 66.891,37.565 L64.895,37.69 Z M64.576,41.971 L66.531,42.392 C66.045,44.653 65.13,46.769 63.813,48.681 L62.166,47.546 C63.334,45.851 64.145,43.975 64.576,41.971 L64.576,41.971 Z M53,41 L67,41 L67,39 L53,39 L53,41 Z M50.023,50.112 L50.148,52.108 C49.875,52.125 49.603,52.134 49.332,52.134 C43.455,52.134 38.2,48.167 36.651,42.442 L38.581,41.92 C39.955,46.996 44.79,50.448 50.023,50.112 L50.023,50.112 Z M48.658,25.889 C55.098,25.494 60.833,29.756 62.277,36.043 L60.328,36.491 C59.104,31.163 54.235,27.557 48.783,27.885 C43.512,28.214 39.164,32.244 38.444,37.467 L36.464,37.194 C37.312,31.032 42.44,26.277 48.658,25.889 L48.658,25.889 Z M26,59 C24.346,59 23,57.654 23,56 C23,54.346 24.346,53 26,53 C27.654,53 29,54.346 29,56 C29,57.654 27.654,59 26,59 L26,59 Z M50.24,54.298 C44.018,54.686 38.154,51.349 35.313,45.793 L33.532,46.705 C33.779,47.188 34.055,47.651 34.342,48.105 L29.391,52.348 C28.498,51.519 27.312,51 26,51 C23.243,51 21,53.243 21,56 C21,58.757 23.243,61 26,61 C28.757,61 31,58.757 31,56 C31,55.279 30.84,54.597 30.563,53.977 L35.504,49.742 C38.827,53.87 43.871,56.329 49.258,56.329 C49.625,56.329 49.995,56.317 50.365,56.294 C53.896,56.073 57.24,54.819 60.033,52.667 L58.813,51.083 C56.337,52.99 53.372,54.102 50.24,54.298 L50.24,54.298 Z" id="AWS-IoT-Events_Icon_64_Squid" fill="#FFFFFF"></path>
    </g>
</svg>
